icons/gmail.svg

<svg aria-labelledby="simpleicons-gmail-icon" role="img" viewBox="0 0 24 24" xmlns="http://www.w3.org/2000/svg"><title id="simpleicons-gmail-icon">Gmail icon</title><path d="M24 4.5v15c0 .85-.65 1.5-1.5 1.5H21V7.387l-9 6.463-9-6.463V21H1.5C.649 21 0 20.35 0 19.5v-15c0-.425.162-.8.431-1.068C.7 3.16 1.076 3 1.5 3H2l10 7.25L22 3h.5c.425 0 .8.162 1.069.432.27.268.431.643.431 1.068z"/></svg>

<?xml version="1.0" standalone="no"?><!-- Generator: Gravit.io --><svg xmlns="http://www.w3.org/2000/svg" xmlns:xlink="http://www.w3.org/1999/xlink" style="isolation:isolate" viewBox="0 0 24 24" width="24" height="24"><path d=" M 24 4.5 L 24 19.5 C 24 20.35 23.35 21 22.5 21 L 21 21 L 21 7.387 L 12 13.85 L 3 7.387 L 3 21 L 1.5 21 C 0.649 21 0 20.35 0 19.5 L 0 4.5 C 0 4.075 0.162 3.7 0.431 3.432 C 0.7 3.16 1.076 3 1.5 3 L 2 3 L 12 10.25 L 22 3 L 22.5 3 C 22.925 3 23.3 3.162 23.569 3.432 C 23.839 3.7 24 4.075 24 4.5 Z " fill="rgb(56,142,60)"/></svg>
